src/main/resources/icons/JavaUltimateIcons/icons/javaee/ejbBusinessMethod.svg

<svg xmlns="http://www.w3.org/2000/svg" width="16" height="16" viewBox="0 0 16 16">
  <g fill="none" fill-rule="evenodd">
    <path fill="#F98B9E" fill-opacity=".6" d="M6,11.5 C6,8.463 8.463,6 11.5,6 C12.809,6 14.01,6.459 14.955,7.223 C14.567,3.723 11.604,1 8,1 C4.134,1 1,4.134 1,8 C1,11.604 3.723,14.567 7.223,14.955 C6.459,14.01 6,12.809 6,11.5"/>
    <path fill="#9AA7B0" fill-opacity=".8" d="M16,11.5 C16,13.985 13.985,16 11.5,16 C9.015,16 7,13.985 7,11.5 C7,9.015 9.015,7 11.5,7 C13.985,7 16,9.015 16,11.5"/>
    <path fill="#231F20" fill-opacity=".7" d="M11,13.1480966 L11,11.7481043 C9.81645683,11.4870328 9.267,11.0451905 9.267,10.3407 L9.267,10.3257 C9.267,9.6578864 9.9740712,9.14328432 11,9.02528157 L11,8 L12,8 L12,9.02298424 C12.7010285,9.0863167 13.2569672,9.27859202 13.8,9.5967 L13.362,10.2217 C12.9158064,9.9568625 12.4701307,9.7992346 12,9.73167069 L12,11.1657245 C13.3661256,11.4112131 14,11.8970454 14,12.6117 C14,13.3976328 13.1775243,13.921202 12,13.9915882 L12,15 L11,15 L11,13.955994 C10.2578041,13.8625199 9.60973246,13.6187883 9,13.2217 L9.467,12.5197 C9.95799146,12.8444335 10.4354686,13.053545 11,13.1480966 Z M12,13.2039613 C12.7371113,13.1861228 13.137,13.0741254 13.137,12.6667 C13.137,12.2752048 12.9614278,12.1044935 12,11.9256281 L12,13.2039613 Z M11,9.71273249 C10.4135811,9.77240982 10.1,9.9674972 10.1,10.3257 C10.1,10.6643883 10.2553502,10.8262988 11,10.9882256 L11,9.71273249 Z"/>
  </g>
</svg>

<svg xmlns="http://www.w3.org/2000/svg" width="16" height="16" viewBox="0 0 16 16"><rect id="frame" width="16" height="16" fill="none"/><g fill="none" fill-rule="evenodd"><path fill="#F98B9E" fill-opacity=".6" d="M6 11.5a5.5 5.5 0 0 1 8.955-4.277 7 7 0 1 0-7.732 7.732A5.476 5.476 0 0 1 6 11.5"/><path fill="#9AA7B0" fill-opacity=".8" d="M16 11.5a4.5 4.5 0 1 1-9 0 4.5 4.5 0 0 1 9 0"/><path fill="#231F20" fill-opacity=".7" d="M11 13.148v-1.4c-1.184-.261-1.733-.703-1.733-1.407v-.015c0-.668.707-1.183 1.733-1.3V8h1v1.023a4.143 4.143 0 0 1 1.8.574l-.438.625A3.64 3.64 0 0 0 12 9.732v1.434c1.366.245 2 .731 2 1.446 0 .786-.822 1.31-2 1.38V15h-1v-1.044a4.638 4.638 0 0 1-2-.734l.467-.702c.491.324.968.534 1.533.628zm1 .056c.737-.018 1.137-.13 1.137-.537 0-.392-.176-.563-1.137-.741v1.278zm-1-3.491c-.586.06-.9.254-.9.613 0 .338.155.5.9.662V9.713z"/></g></svg>
